X:834
T:Hallow Fair
S:The Piper's Assistant
Z:Nigel Gatherer
M:6/8
L:1/8
K:Amix
e2c d2B | c2A B2G | B>BB g3 | dBG Bcd  |
e2c d2B | c2A B2G | BcB  a3 | ecA Acd :|
ecA AcA | ecA AcA | dBG GBG | dBG GBG  |
ecA AcA | ecA AcA | BcB  a3 | ecA Acd :|
<end>
<start>
